svg/NEPAnode-FreeOpenSourceLicenses/licenses-registered_trademark.svg

<?xml version="1.0" encoding="UTF-8" standalone="no"?>
<!-- Created with Inkscape (http://www.inkscape.org/) --><svg height="200" id="Layer_1" space="preserve" version="1.0" viewBox="0 0 200 200" width="200" xmlns="http://www.w3.org/2000/svg" xmlns:svg="http://www.w3.org/2000/svg">
  <metadata>
    <rdf:RDF xmlns:cc="http://web.resource.org/cc/" xmlns:dc="http://purl.org/dc/elements/1.1/" xmlns:rdf="http://www.w3.org/1999/02/22-rdf-syntax-ns#">
      <cc:Work rdf:about="">
        <dc:title></dc:title>
        <dc:description></dc:description>
        <dc:subject>
          <rdf:Bag>
            <rdf:li></rdf:li>
          </rdf:Bag>
        </dc:subject>
        <dc:publisher>
          <cc:Agent rdf:about="http://commons.wikimedia.org/">
            <dc:title>Source: Wikimedia Commons, Source: Wikimedia Commons, Source: Wikimedia Commons</dc:title>
          </cc:Agent>
        </dc:publisher>
        <dc:creator>
          <cc:Agent>
            <dc:title></dc:title>
          </cc:Agent>
        </dc:creator>
        <dc:rights>
          <cc:Agent>
            <dc:title></dc:title>
          </cc:Agent>
        </dc:rights>
        <dc:date></dc:date>
        <dc:format>image/svg+xml</dc:format>
        <dc:type rdf:resource="http://purl.org/dc/dcmitype/StillImage"/>
        <cc:license rdf:resource="http://en.wikipedia.org/wiki/Public_domain"/>
        <dc:language>en</dc:language>
      </cc:Work>
    </rdf:RDF>
  </metadata>
  <defs id="defs7"/>
  <circle cx="100" cy="100" id="circle3" r="88.5" style="fill:none;stroke:#000000;stroke-width:20"/>
  <path d="M 94.555176,91.95166 C 100.125,91.95166 104.10742,90.916504 106.50195,88.844238 C 108.94336,86.773926 110.16211,83.366699 110.16211,78.625488 C 110.16211,73.930176 108.94336,70.568848 106.50195,68.543457 C 104.10742,66.518066 100.125,65.504395 94.555176,65.504395 L 83.368652,65.504395 L 83.368652,91.95166 L 94.555176,91.95166 M 83.368652,110.31836 L 83.368652,149.33398 L 56.782715,149.33398 L 56.782715,46.238769 L 97.38623,46.238769 C 110.9668,46.238769 120.91016,48.518066 127.21875,53.074707 C 133.57031,57.633301 136.74609,64.836426 136.74609,74.688965 C 136.74609,81.502441 135.08984,87.096191 131.77539,91.469238 C 128.50586,95.842285 123.55859,99.06445 116.92969,101.13477 C 120.56445,101.96289 123.81055,103.85156 126.66602,106.79883 C 129.56445,109.69727 132.48828,114.11719 135.43555,120.05664 L 149.86719,149.33398 L 121.55469,149.33398 L 108.98633,123.7168 C 106.45508,118.56055 103.87695,115.03711 101.25391,113.15039 C 98.67578,111.26367 95.223145,110.31836 90.89502,110.31836 L 83.368652,110.31836" id="text3175"/>
</svg>

<svg viewBox="0 0 200 200" xmlns="http://www.w3.org/2000/svg"><circle cx="100" cy="100" r="88.5" fill="none" stroke="#000" stroke-width="20"/><path d="m94.56 91.95c5.57 0 9.552-1.035 11.947-3.107 2.441-2.07 3.66-5.478 3.66-10.219 0-4.695-1.219-8.06-3.66-10.08-2.395-2.025-6.377-3.039-11.947-3.039h-11.187v26.447h11.187m-11.187 18.367v39.02h-26.586v-103.1h40.604c13.581 0 23.524 2.279 29.833 6.836 6.352 4.559 9.527 11.762 9.527 21.614 0 6.813-1.656 12.407-4.971 16.78-3.27 4.373-8.217 7.595-14.846 9.666 3.635.828 6.881 2.717 9.736 5.664 2.898 2.898 5.822 7.318 8.77 13.258l14.432 29.28h-28.313l-12.568-25.617c-2.531-5.156-5.109-8.68-7.732-10.566-2.578-1.887-6.03-2.832-10.359-2.832h-7.526"/></svg>
